X: 8
T: Wallop The Potlid
R: jig
M: 6/8
L: 1/8
K: Gmaj
|:G/A/|B3 AGF|DGG G2 A|BAB cBc|dgg fdc|BGB AFA|DGG FGA|BdB cAF|AGG G2:||:A|BAB cBc|dgg fdc|dgg gfg|agf g2 [Aa]|1BAB cBc|dgg fdc|B2 d cAF|AGG G2:|2bgb afa|gfd cAF|Bcd cAF|AGG G2||


Tune 1454	Setting 27072

